X:1
T:Gavotte in D major
T:Gavotte in D major
T:François Joseph Gossec
T:Public Domain (PianoXML typeset)
T:Public Domain (PianoXML typeset)
C:François Joseph Gossec
Z:Public Domain (PianoXML typeset)
%%score { ( 1 3 ) | 2 }
L:1/8
Q:1/4=120
M:4/4
K:D
V:1 treble nm="Piano" snm="Pno."
V:3 treble 
V:2 bass 
V:1
!p!"^Allegretto" .!4!a.b.a.f .!3!g.a.g.e | .d2{/c'} .d'2 !tenuto!d2 z2 | .!4!g.a.g.e .!3!f.g.f.d | %3
 .!2!e2{/^g} .a2 A2 z2 | .a.b.a.f .g.a.g.e | d2{/c'} .d'2 !tenuto!d2 z2 | %6
"_cresc." !4!f2 .d.B !4!d2 .!3!B.!2!^G |!<(! .!1!A2!<)!{/^g} .a2!>(! !tenuto!A2 z2!>)! :| %8
!p! .!1!e.g.f.a .g.f.e.!3!d | .!2!c2 .e2 !tenuto!g2 z2 |!mf! .!2!f.a.g.b .a.g.f.e | %11
 .!2!d2 .f2 !tenuto!a2 z2 |!f! .!3!b.a.a.g .!3!g.!2!f.!3!f.!2!e | %13
"_ritard." .!1!e2[Q:1/4=100] .g2[Q:1/4=90] b2[Q:1/4=80] z2 | %14
[Q:1/4=90]!p! .!5!a.!4!f[Q:1/4=100].!2!c.!1!d[Q:1/4=105]!<(! .!5!g.!4!e.!1!B.!2!c!<)! | %15
!f![Q:1/4=110] .d2{/c'} .d'2 !tenuto!d2 z2 |: %16
!mf!"^a tempo"[Q:1/4=120] !tenuto![Af]2 !tenuto![Af]2 !tenuto![Ag]2 !tenuto![Ag]2 | %17
 ([da]d').b.d' a2 z2 |!<(! !tenuto![FAd]2 !tenuto![FAd]2 !tenuto![Ace]2 !tenuto![Ace]2!<)! | %19
 (!2
1![df]/!4!a/^g/a/!>(! b/a/=g/f/ .e).A.c.!1!A!>)! |!p! .!2!B2 .!4!d.!1!B (.b2 .B2) | %21
 .!2!A2 .!4!d.!1!A (.!5!a2 .A2) | .[eg]2 .A2 .[df]2 .A2 | .e2 (!3
1!e/f/g/f/ .e2) x2 :: %24
!p!"_delicato" .!4!g2 (g/f/e/!1!d/ .!2!c)z.!4!c' z | .d'z.A z !tenuto!d2 z2 | %26
"_cresc." .g2 (g/f/e/d/ .c)z.c' z | .d'z.d z !tenuto!f2 z2 |!pp! .!3!B2 (d/c/B/A/ .G)z.b z | %29
 .!2!A2 (!3!A/B/A/G/ .F)z.a z |"_cresc." .!3!g2 (b/a/g/f/ .e)z.!4!c' z | %31
!f! .d'2 .!1!d2 .!2!D2 z2 :|!p!"_con grazia" .!4!a.b.a.f .!3!g.a.g.e | %33
 .d2{/c'} .d'2 !tenuto!d2 z2 | .g.a.g.e .f.g.f.d | .e2{/^g} .a2 !tenuto!A2 z2 | .a.b.a.f .g.a.g.e | %37
 .d2{/c'} .d'2 !tenuto!d2 z2 | !4!f2 .d.B !4!d2 .!3!B.!2!^G | .!1!A2{/^g} .a2 !tenuto!A2 z2 | %40
!p! .!1!e.g.f.a .g.f.e.!3!d | .!2!c2 .e2 !tenuto!g2 z2 |!mf! .!2!f.a.g.b .a.g.f.e | %43
 .!2!d2 .f2 !tenuto!a2 z2 |"_dim." .!3!b.!2!a.!3!a.!2!g .!3!g.!2!f.!3!f.!2!e | %45
"^ritard.  -    -    -    -    -    -    -    -   -    -" .!1!e2[Q:1/4=110] .g2 !tenuto!b2[Q:1/4=100] z2 | %46
"_dim." .!5!a.!4!f[Q:1/4=90].!2!c.!1!d .g.e[Q:1/4=80].B.c | .!1!d2{/c'} .d'2 !tenuto![Fd]4 |] %48
V:2
 .D,2 .[F,A,D]2 .A,,2 .[G,A,C]2 | .D,2 .[F,A,D]2 .D,2 .[F,A,D]2 | .C,2 .[G,A,D]2 .D,2 .[F,A,D]2 | %3
 .A,,2 .[E,A,C]2 .A,,2 .[E,A,C]2 | .D,2 .[F,A,D]2 .A,,2 .[G,A,C]2 | .D,2 .[F,A,D]2 .D,2 .[F,A,D]2 | %6
 .D,2 .[F,B,D]2 .E,2 .[^G,B,D]2 | .A,,2 .[A,CE]2 A,,2 !tenuto![=G,A,C]2 :| %8
 .C,2 .[G,A,E]2 .E,2 .[G,A,C]2 | .C,2 .[G,A,E]2 .A,,2 .[G,A,C]2 | .D,2 .[F,A,D]2 .A,,2 .[F,A,D]2 | %11
 .D,2 .[F,A,D]2 .A,,2 .[F,A,D]2 | .G,,2 .[G,B,E]2 .B,,2 .[G,B,E]2 | E,2 .[G,B,E]2 .G,,2 .[G,B,E]2 | %14
 .A,,2 .[F,A,D]2 .A,,2 .[G,A,C]2 | .D,2 .[F,A,D]2 !tenuto!D,2 z2 |: %16
 !tenuto![D,D]2 !tenuto![D,D]2 !tenuto![E,C]2 !tenuto![E,C]2 | (!4
5![F,A,]DFD FDFD) | %18
 !tenuto![D,A,]2 !tenuto![D,A,]2 !tenuto![A,,A,]2 !tenuto![A,,A,]2 | %19
 .[D,F,A,]2 .[D,F,A,]2 .[A,C]2 z2 | (G,DB,D G,B,DB,) | (F,DA,D F,A,DA,) | %22
 .C,2 .[G,A,CE]2 .D,2 .[F,A,D]2 | .[A,,A,]2 .[A,CE]2 .[A,,A,]2 z2 :: (A,,A,CA, [EG]A,[EG]A,) | %25
 (D,A,[DF]A, [DF]A,[DF]A,) | (A,,A,[CE]A, [EG]A,[EG]A,) | (D,A,[DF]A, [DF]A,[DF]A,) | %28
 (G,DB,D G,DB,D) | (D,D[F,A,]D D,D[F,A,]D) | .G,2 .[B,EG]2 .A,2 .[EG]2 | %31
 .[DF]2 .[D,D]2 .[D,,D,]2 z2 :| .D,2 .[F,A,D]2 .A,,2 .[G,A,C]2 | .D,2 .[F,A,D]2 .D,2 .[F,A,D]2 | %34
 .C,2 .[G,A,E]2 .D,2 .[F,A,D]2 | .A,,2 .[E,A,C]2 .A,,2 .[E,A,C]2 | .D,2 .[F,A,D]2 .A,,2 .[G,A,C]2 | %37
 .D,2 .[F,A,D]2 .D,2 .[F,A,D]2 | .D,2 .[F,B,D]2 E,2 .[^G,B,D]2 | %39
 .A,,2 .[A,CE]2 !tenuto!A,,2 !tenuto![=G,A,C]2 | .C,2 .[G,A,E]2 .E,2 .[G,A,C]2 | %41
 .C,2 .[G,A,E]2 .A,,2 .[G,A,C]2 | .D,2 .[F,A,D]2 .A,,2 .[F,A,D]2 | .D,2 .[F,A,D]2 .A,,2 .[F,A,D]2 | %44
 .G,,2 .[G,B,E]2 .B,,2 .[G,B,E]2 | .E,2 .[G,B,E]2 .G,,2 .[G,B,E]2 | %46
 .A,,2 .[F,A,D]2 .A,,2 .[G,A,C]2 | .D,2 .[F,A,D]2 !tenuto![D,,D,]4 |] %48
V:3
 x8 | x8 | x8 | x8 | x8 | x8 | x8 | x8 :| x8 | x8 | x8 | x8 | x8 | x8 | x8 | x8 |: x8 | x8 | x8 | %19
 x8 | x8 | x8 | x8 | c2 c2 .c2 z2 :: x8 | x8 | x8 | x8 | x8 | x8 | x8 | x8 :| x8 | x8 | x8 | x8 | %36
 x8 | x8 | x8 | x8 | x8 | x8 | x8 | x8 | x8 | x8 | x8 | x8 |] %48

